X:1
T:Ctchurch
M:3/4
L:1/4
Q:120
K:D#m
 AdG | AdG | Ade | fed | cdA | cdA | GFG | E3 |
 AdG | AdG | Ade | fed | cdA | cdA | GFG | E3 :|]